X:111
T:Flogging
Z: id:dc-reel-103
M:C
L:1/8
K:G Major
A|BGG2 BGdG|BGG2 Bdgd|BGG2 BdcB|AGFG ABc:|!
A|gfgd BGBd|gfge fgaf|gfgd BGBd|AGFG ABcA|!
gfgd BGBd|gfge fgaf|bgaf gedB|AGFG ABc|]!
A|Bdgd Bdgd|Bdgd BGGB|Ac=fc Acfc|Ac=fc A=FFA|!
Bdgd Bdgd|Bdef gfga|bgaf gedB|AGFG ABc|]!

